resources/svg/horton.svg

<svg xmlns="http://www.w3.org/2000/svg" viewBox="0 0 24 24" fill="currentColor"><path fill="currentColor" fill-rule="evenodd" d="M2.30070636,12.9767911 L2.14328961,12.9767911 C1.82441978,13.9656912 1.38849647,14.9344097 1.21089808,15.9475277 C0.988900101,17.2391524 0.972754793,18.5711403 0.87184662,19.8829465 C0.843592331,20.221998 0.996972755,20.3995964 1.33602422,20.4036327 C2.8617558,20.4238143 2.68819374,20.4843592 2.93844601,19.2048436 C2.95459132,19.1160444 2.9667003,19.0272452 2.99495459,18.938446 C3.51564077,17.2795156 3.53985873,15.6528759 2.72452069,14.0625631 C2.5469223,13.7194753 2.4419778,13.3400605 2.30070636,12.9767911 L2.30070636,12.9767911 Z M18.9061554,7.0554995 C18.9061554,6.77699294 18.6801211,6.55499495 18.4056509,6.55499495 C18.1271443,6.55499495 17.9051463,6.77699294 17.9051463,7.0554995 C17.9051463,7.32996973 18.1271443,7.55600404 18.4056509,7.55600404 C18.6801211,7.55600404 18.9061554,7.32996973 18.9061554,7.0554995 L18.9061554,7.0554995 Z M21.0817356,9.79212916 C21.2875883,10.2320888 21.235116,10.8133199 21.2310797,11.3299697 C21.2270434,12.2542886 21.1745711,13.1786075 21.1342079,14.1029263 C21.0978809,15.0191726 21.0575177,15.9354188 21.0090817,17.025227 C20.431887,16.6700303 19.9717457,16.419778 19.5519677,16.1170535 C19.4106963,16.0161453 19.3097881,15.7820383 19.2976791,15.6004036 C19.2008073,14.5025227 19.1039354,13.4006054 19.0716448,12.2986882 C19.0554995,11.60444 18.8698285,11.0918264 18.1473259,10.8940464 C17.7638749,10.7931382 17.5660949,10.5267407 17.4207871,10.1594349 C16.8072654,8.63370333 16.1695257,7.11200807 15.4914228,5.47325933 C16.653885,5.68718466 17.7275479,5.86074672 18.7891019,6.09081736 C18.9788093,6.13118063 19.1644803,6.36932392 19.2774975,6.56306761 C19.8990918,7.62865792 20.5529768,8.67810293 21.0817356,9.79212916 L21.0817356,9.79212916 Z M21.6508577,17.0171544 C21.6508577,17.0332997 21.667003,17.0454087 21.691221,17.0978809 C22.4621594,17.1543895 23.3057518,17.4490414 23.8627649,16.3794147 C23.4994955,16.2744702 23.1765893,16.1775984 22.8536831,16.0928355 C21.6508577,15.778002 21.6508577,15.778002 21.6508577,17.0171544 L21.6508577,17.0171544 Z M15.3501514,13.8123108 C15.2532795,13.4651867 15.0797175,13.3158426 14.7204844,13.2633703 C14.284561,13.1947528 13.7880928,13.1463169 13.4490414,12.9041372 C11.9515641,11.8183653 10.506559,10.6599395 9.02522704,9.54994955 C8.62563068,9.24722503 8.52875883,8.93239152 8.69424823,8.46821393 C8.94046418,7.77396569 9.15035318,7.06760848 9.41271443,6.26034309 C9.18668012,6.28456105 9.08173562,6.28859738 8.98082745,6.30877901 C7.67305752,6.59939455 6.37739657,6.95459132 5.05348133,7.16851665 C4.19374369,7.30978809 3.67305752,7.7457114 3.15237134,8.419778 C1.88900101,10.0544904 0.920282543,11.790111 0.565085772,13.8486377 C0.43592331,14.6034309 0.193743693,15.3380424 0,16.0807265 C0.0605449041,16.1210898 0.125126135,16.1614531 0.185671039,16.2018163 C0.310797175,16.0565086 0.48839556,15.9313824 0.552976791,15.765893 C0.956609485,14.6760848 1.33198789,13.5782038 1.72754793,12.4883956 C1.93340061,11.9233098 2.11503532,11.8789102 2.49041372,12.3592331 C2.73259334,12.6659939 2.95459132,13.0171544 3.08375378,13.3804238 C3.77396569,15.3299697 4.43592331,17.2875883 5.10998991,19.2411705 C5.51765893,20.431887 5.52169526,20.4117053 6.79313824,20.4157417 C7.27346115,20.4157417 7.44702321,20.2462159 7.40665994,19.778002 C7.32189707,18.764884 7.26942482,17.7517659 7.1765893,16.7426842 C7.13218971,16.2260343 7.36226034,15.987891 7.83854692,15.8587286 C9.01311806,15.5438951 10.1796165,15.2048436 11.346115,14.8698285 C12.0807265,14.6639758 12.1533804,14.6881937 12.5166498,15.3420787 C13.2795156,16.7023209 14.0787084,18.0464178 14.7769929,19.4429869 C15.1564077,20.209889 15.6609485,20.5045409 16.4924319,20.4157417 C17.1019173,20.3511604 17.1503532,20.3430878 16.9848638,19.7336024 C16.4399596,17.7598385 15.8829465,15.7860747 15.3501514,13.8123108 L15.3501514,13.8123108 Z M15.2330979,6.27245207 C14.8536831,5.23107972 14.3047427,4.66195762 13.1786075,4.55297679 C12.4601413,4.48435923 11.7618567,4.19374369 11.0514632,4 L10.8335015,4 C10.7366297,4.21392533 10.6195762,4.419778 10.5469223,4.63773966 C10.1392533,5.86074672 9.75983855,7.09182644 9.34006054,8.30676085 C9.18264379,8.75882947 9.28355197,9.04944501 9.66700303,9.32795156 C10.728557,10.1150353 11.7941473,10.9061554 12.815338,11.7497477 C14.4500505,12.7386478 15.0554995,12.7386478 15.790111,12.7346115 C16.5247225,12.7305752 17.1099899,12.7346115 17.8486377,12.7346115 C17.7558022,12.4722503 17.6992936,12.2865792 17.6266398,12.1089808 C16.8193744,10.1675076 15.9475277,8.25025227 15.2330979,6.27245207 L15.2330979,6.27245207 Z M11.4470232,15.4510595 C11.160444,15.4873865 10.7891019,15.5035318 10.764884,15.987891 C10.7124117,17.0696266 10.6155399,18.1513623 10.530777,19.3420787 C10.5509586,19.592331 10.4581231,20.1210898 10.6437941,20.2542886 C10.9182644,20.443996 11.4026236,20.407669 11.7820383,20.3551968 C11.9354188,20.3350151 12.1210898,20.0484359 12.1735621,19.8466196 C12.3148335,19.3259334 12.3269425,18.764884 12.5005045,18.2563068 C12.8193744,17.3118063 12.6215943,16.4803229 12.0484359,15.7255298 C11.9273461,15.5640767 11.6367306,15.4268416 11.4470232,15.4510595 L11.4470232,15.4510595 Z M24,15.7255298 C23.9071645,15.160444 23.8546922,14.6437941 23.7255298,14.1473259 C23.6932392,14.0221998 23.4349142,13.9091826 23.2653885,13.889001 C23.1564077,13.8728557 22.9465187,14.0020182 22.9061554,14.110999 C22.6195762,14.8617558 23.0958628,15.6165489 24,15.7255298 L24,15.7255298 Z"/></svg>

<svg viewBox="0 0 24 24"><path fill="currentColor" fill-rule="evenodd" d="M2.3 12.977h-.157c-.319.989-.755 1.957-.932 2.97c-.222 1.292-.238 2.624-.34 3.936c-.027.339.126.517.465.52c1.526.02 1.352.081 1.602-1.198c.017-.089.029-.178.057-.267c.52-1.658.545-3.285-.27-4.875c-.178-.344-.283-.723-.424-1.086zm16.606-5.922a.5.5 0 1 0-1 0a.5.5 0 0 0 1 0zm2.176 2.737c.206.44.153 1.021.15 1.538c-.005.924-.057 1.849-.098 2.773a609.04 609.04 0 0 1-.125 2.922c-.577-.355-1.037-.605-1.457-.908c-.141-.1-.242-.335-.254-.517c-.097-1.097-.194-2.2-.226-3.301c-.017-.695-.202-1.207-.925-1.405c-.383-.1-.58-.367-.726-.735c-.614-1.525-1.251-3.047-1.93-4.686c1.163.214 2.237.388 3.298.618c.19.04.375.278.488.472c.622 1.066 1.276 2.115 1.805 3.23zm.569 7.225c0 .016.016.028.04.08c.771.057 1.615.352 2.172-.718c-.364-.105-.686-.201-1.01-.286c-1.202-.315-1.202-.315-1.202.924zm-6.3-3.205c-.098-.347-.271-.496-.63-.549c-.436-.068-.933-.117-1.272-.359c-1.497-1.086-2.942-2.244-4.424-3.354c-.4-.303-.496-.618-.33-1.082c.245-.694.455-1.4.718-2.208c-.226.025-.331.029-.432.049c-1.308.29-2.604.646-3.928.86c-.86.14-1.38.577-1.9 1.25C1.888 10.055.92 11.79.564 13.85c-.13.754-.371 1.489-.565 2.232c.06.04.125.08.186.12c.125-.144.302-.27.367-.435c.404-1.09.779-2.188 1.175-3.278c.205-.565.387-.61.762-.129c.243.307.465.658.594 1.021c.69 1.95 1.352 3.908 2.026 5.861c.408 1.19.412 1.17 1.683 1.175c.48 0 .654-.17.614-.638c-.085-1.013-.138-2.026-.23-3.035c-.045-.517.185-.755.662-.884c1.174-.315 2.34-.654 3.507-.99c.735-.205.807-.18 1.17.473c.764 1.36 1.563 2.704 2.261 4.101c.38.767.884 1.062 1.715.973c.61-.065.658-.073.493-.682c-.545-1.974-1.102-3.948-1.635-5.922zm-.118-7.54c-.38-1.04-.928-1.61-2.054-1.719c-.719-.069-1.417-.36-2.128-.553h-.217c-.097.214-.214.42-.287.638c-.408 1.223-.787 2.454-1.207 3.669c-.157.452-.056.742.327 1.021c1.062.787 2.127 1.578 3.148 2.422c1.635.989 2.24.989 2.975.985c.735-.004 1.32 0 2.059 0c-.093-.263-.15-.448-.222-.626c-.808-1.941-1.68-3.859-2.394-5.837zm-3.786 9.18c-.287.035-.658.052-.682.536c-.053 1.082-.15 2.163-.234 3.354c.02.25-.073.78.113.912c.274.19.759.154 1.138.101c.153-.02.34-.307.392-.508c.14-.521.153-1.082.327-1.59c.318-.945.12-1.777-.453-2.531c-.12-.162-.411-.3-.601-.275zM24 15.725c-.093-.566-.145-1.082-.274-1.579c-.033-.125-.291-.238-.46-.258c-.11-.016-.32.113-.36.222c-.286.75.19 1.506 1.094 1.615z"/></svg>
